COLOR/action 16/16/spray-mode-clone.svg

<svg height="16" width="16" xmlns="http://www.w3.org/2000/svg"><path d="m4 1v4h9v5h2v-9zm-3 5v9h11v-9z" fill="#45a925"/><path d="m4 1v.5h11v-.5zm-3 5v.5h11v-.5z" fill="#fff" opacity=".3"/><path d="m4 4.5v.5h9v-.5zm9 5v.5h2v-.5zm-12 5v.5h11v-.5z" opacity=".2"/><path d="m1.9999999 7v2h1v-1h1v-1zm7.0000001 0v1h1v1h1v-2zm-7.0000001 5v2h2v-1h-1v-1zm8.0000001 0v1h-1v1h2v-2z" fill="#fff"/></svg>

<?xml version="1.0" encoding="UTF-8" standalone="no"?>
<svg
   xmlns:dc="http://purl.org/dc/elements/1.1/"
   xmlns:cc="http://creativecommons.org/ns#"
   xmlns:rdf="http://www.w3.org/1999/02/22-rdf-syntax-ns#"
   xmlns:svg="http://www.w3.org/2000/svg"
   xmlns="http://www.w3.org/2000/svg"
   xmlns:sodipodi="http://sodipodi.sourceforge.net/DTD/sodipodi-0.dtd"
   xmlns:inkscape="http://www.inkscape.org/namespaces/inkscape"
   height="16"
   width="16"
   version="1.1"
   id="svg8"
   sodipodi:docname="spray-mode-clone.svg"
   inkscape:version="0.92.4 (5da689c313, 2019-01-14)">
  <metadata
     id="metadata14">
    <rdf:RDF>
      <cc:Work
         rdf:about="">
        <dc:format>image/svg+xml</dc:format>
        <dc:type
           rdf:resource="http://purl.org/dc/dcmitype/StillImage" />
      </cc:Work>
    </rdf:RDF>
  </metadata>
  <defs
     id="defs12" />
  <sodipodi:namedview
     pagecolor="#ffffff"
     bordercolor="#808080"
     borderopacity="1"
     objecttolerance="10"
     gridtolerance="10"
     guidetolerance="10"
     inkscape:pageopacity="0"
     inkscape:pageshadow="2"
     inkscape:window-width="1920"
     inkscape:window-height="1016"
     id="namedview10"
     showgrid="false"
     inkscape:zoom="52.4375"
     inkscape:cx="6.2089789"
     inkscape:cy="8"
     inkscape:window-x="0"
     inkscape:window-y="27"
     inkscape:window-maximized="1"
     inkscape:current-layer="svg8" />
  <path
     d="m 4,1 v 4 h 9 v 5 h 2 V 1 Z M 1,6 v 9 H 12 V 6 Z"
     id="path2"
     inkscape:connector-curvature="0"
     style="fill:#45a925"
     sodipodi:nodetypes="cccccccccccc" />
  <path
     d="m4 1v.5h11v-.5zm-3 5v.5h11v-.5z"
     fill="#fff"
     opacity=".3"
     id="path4" />
  <path
     d="m4 4.5v.5h9v-.5zm9 5v.5h2v-.5zm-12 5v.5h11v-.5z"
     opacity=".2"
     id="path6" />
  <path
     style="opacity:1;fill:#ffffff;fill-opacity:1;stroke:none;stroke-width:0.30000001;stroke-linecap:round;stroke-miterlimit:4;stroke-dasharray:none;stroke-opacity:1"
     d="m 1.9999999,7 v 2 h 1 V 8 h 1 V 7 Z M 9,7 v 1 h 1 v 1 h 1 V 7 Z m -7.0000001,5 v 2 h 2 v -1 h -1 V 12 Z M 10,12 v 1 H 9 v 1 h 2 v -2 z"
     id="rect814"
     inkscape:connector-curvature="0"
     sodipodi:nodetypes="cccccccccccccccccccccccccccc" />
</svg>
